X: 37414
T: Sleigh Ride
R: polka
M: 2/4
K: Cmajor
.d.d .d.d|.d.d .d.d|dg zc|B3 G/A/|
.B.B .B.B|.B.B .B.B|B zB|A3 E/F/|
G/F/E EG|Fc BA|Gf ed|
[1 c3 B/A/|B/A/^G GA|Ba ^g^f|e2 B2|e3:|
[2 c4-|cg d/c/G|cd/g/ d/c/G|GA/d/ gd|G||

